X:1
T:Title
L:1/8
Q:1/4=100
M:4/4
K:E
V:1 treble nm="Church Organ, Staff"
V:1
 A2 G2 F2 E2 | c4 B4 | e2 c>c B3 G |[M:6/8] EFG- G2- G/ z/ | B G2 F E2 | F G2 c B2 | A G2 F E2 | %7
w: By~Mr.~Arthur~Henry~Brown * * *|||||||
 F G2 e d2 | c B2 BBA | GAB c B2 | A G2 AFG | F F2 G A2 |] %12
w: |||||

